X: 32058
T: Pelican
R: reel
M: 4/4
K: Eminor
|:EFGA B2B2|EFGA B2B2|AFD2 DFBF|AFD2 D4|
EFGA B2B2|EFGA B2B2|g3f e2d2|GFED E4:|
K: Gmaj
|:B4 B2B2|BcdB G2G2|A4 A2A2|ABAG E2D2|
B4 B2B2|BcdB G2G2|ABAG E2D2|1 G4 G4:|2 G4 F4||

